X:1
T: Lady Williams' Delight
N:
C:Jonathan Jensen
S:
A:
O:
R:
M:3/2
K:D
I:speed 150
%W: A1
% voice 1 (1 lines, 29 notes)
K:D
M:3/2
L:1/16
f6 |e2 d2 e2 |f4 d4 |B4 G4 |e8 |d4 c4 |A4 F4 |d8 |c4 B4 |G4 E4 |A8 |G4 F2 |G2 A4 |B2 c2 d4 |d4 c4 |d8 |
%W: A2
% voice 1 (1 lines, 29 notes)
f6 |e2 d2 e2 |f4 d4 |B4 G4 |e8 |d4 c4 |A4 F4 |d8 |c4 B4 |G4 E4 |A8 |G4 F2 |G2 A4 |B2 c2 d4 |d4 c4 |d8 |
%W: B1
% voice 1 (1 lines, 25 notes)
a6 |g2 f2 g2 |a4 b4 |g4 e6 |d2 c2 d2 |e4 f4 |c4 d4 |B4 g2 |f2 e4 |f2 e2 d4 |d12 |c4 B8 |
%W:
% voice 1 (1 lines, 27 notes)
F2 G2 A4 |B4 F4 |G4 E4 |c2 d2 e4 |a4 e4 |f4 d4 |e4 B4 |c4 A4 |d4 A4 |F2 G2 A4 |F4 E2 |D2 D8 |
%W: B2
% voice 1 (1 lines, 25 notes)
a6 |g2 f2 g2 |a4 b4 |g4 e6 |d2 c2 d2 |e4 f4 |c4 d4 |B4 g2 |f2 e4 |f2 e2 d4 |d12 |c4 B8 |
%W:
% voice 1 (1 lines, 27 notes)
F2 G2 A4 |B4 F4 |G4 E4 |c2 d2 e4 |a4 e4 |f4 d4 |e4 B4 |c4 A4 |d4 A4 |F2 G2 A4 |F4 E2 |D2 D8 ||
